!!!COM: Bach, Johann Sebastian
!!!OPR: Joh. Seb. Bachs vierstimmige Choralgesänge
!!!XEN: Four-part Chorales
!!!OTL: 175. Wenn mein Stündlein vorhanden ist
!!!SCT: BWV 428
!!!SCA: Thematisch-systematisches Verzeichnis der musikalischen Werke Johann Sebastian Bach: Bach-Werke-Verzeichnis (Schmieder)
!!!YOR: Bach Gesellschaft Edition xxxix
!!!ENC: Steven Rasmussen
!!!CDT: 1685/3//-1750/7/28/
!!!OCY: Deutschland
!!!YEC: Copyright (c) 1994, 2000 Center for Computer Assisted Research in the Humanities
!!!YEM: Rights to all derivative editions reserved
!!!YEN: United States of America
**kern	**silbe	**kern	**kern	**silbe	**kern	**silbe
*I:[SOPRANO]	*I:[SOPRANO]	*I:[ALTO]	*I:[TENORE]	*I:[TENORE]	*I:[BASSO]	*I:[BASSO]
*clefG2	*	*clefG2	*clefGv2	*	*clefF4	*
*k[f#]	*	*k[f#]	*k[f#]	*	*k[f#]	*
*G:	*	*G:	*G:	*	*G:	*
*M4/4	*	*M4/4	*M4/4	*	*M4/4	*
4g	Wenn	4d	8BL	.	8GGL	.
.	.	.	8AJ	.	8AAJ	.
=1	=1	=1	=1	=1	=1	=1
4d	mein	4d	4G	.	4BB	.
4e	StÃ¼nd-	4c	4G	.	4BB-	.
4f#	-lein	4c	4A	.	4AA	.
4g	vor-	4d	4B	.	4GG	.
=2	=2	=2	=2	=2	=2	=2
4a	-han-	4d	4c	.	4FF#	.
4b	-den	4d	4B	.	4GG	.
4g;	ist	4e;	4c;	.	4C;	.
8bL	und	4d	4B	.	4G	.
8ccJ	.	.	.	.	.	.
=3	=3	=3	=3	=3	=3	=3
4dd	ich	8dL	4A	.	8F#L	.
.	.	8eJ	.	.	8EJ	.
4dd	soll	4f#	4A	.	4D	.
8bL	fahr'n	4g	8GL	.	4E	.
8ccJ	.	.	8AJ	.	.	.
4dd	mein'	4fn	4B	.	4BB	.
=4	=4	=4	=4	=4	=4	=4
2cc	Stra-	4e	4B	.	4C	.
.	.	4f#	4A	.	4D	.
4b;	-sse,	4d;	4G;	.	4GG;	.
4b	so	4d	4B	.	4G	.
=5	=5	=5	=5	=5	=5	=5
4cc	g'leit'	4.d	4A	.	4F#	.
4b	du	.	4B	.	4G	.
.	.	8e	.	.	.	.
4a	mich,	4f#	4B	.	4D#	.
8gL	Herr	8gL	4B	.	8EL	.
8aJ	.	8f#J	.	.	8F#J	.
=6	=6	=6	=6	=6	=6	=6
4b	Je-	4e	4B	.	8GL	.
.	.	.	.	.	8AJ	.
8bL	-su	4d#	4B	.	4B	.
8aJ	.	.	.	.	.	.
4g;	Christ,	4e;	4B;	.	4E;	.
8bL	mit	4e	4G	.	4E	.
8ccJ	.	.	.	.	.	.
=7	=7	=7	=7	=7	=7	=7
4dd	HÃ¼lf'	4d	8AL	.	4Fn	.
.	.	.	8BJ	.	.	.
4dd	mich	4a	8cL	.	4F#	.
.	.	.	8dJ	.	.	.
4b	nicht	4g	8dL	.	4G	.
.	.	.	8eJ	.	.	.
4dd	ver-	4b	4fn	.	4G#	.
=8	=8	=8	=8	=8	=8	=8
2cc	-las-	4b	4e	.	4A	.
.	.	4a	4f#	.	4D	.
4b;	-se:	4g;	4d;	.	4G;	.
4b	mein'	4g	4d	.	8GL	.
.	.	.	.	.	8F#J	.
=9	=9	=9	=9	=9	=9	=9
4cc	Seel'	4g	4c	.	4E	.
4b	an	4g	4d	.	4D	.
4a	mei-	8f#L	4d	.	4C	.
.	.	8eJ	.	.	.	.
8gL	-nem	4d	8dL	.	8BBL	.
8aJ	.	.	8cJ	.	8AAJ	.
=10	=10	=10	=10	=10	=10	=10
4b	letz-	4d	8BL	.	8GGL	.
.	.	.	8AJ	.	8AAJ	.
4b	-ten	4d	4G	.	4BB	.
4g;	End'	4e;	4c;	.	4C;	.
4a	be-	8eL	4c	.	4A	.
.	.	8f#J	.	.	.	.
=11	=11	=11	=11	=11	=11	=11
4b	-fehl'	8f#L	4B	.	8GL	.
.	.	16eL	.	.	8F#J	.
.	.	16f#JJ	.	.	.	.
4b	ich,	8gL	4B	.	8EL	.
.	.	8f#J	.	.	8DJ	.
4e	Herr,	4e	8BL	.	4C#	.
.	.	.	8AJ	.	.	.
4f#	in	8eL	8AL	.	4D	.
.	.	8dJ	16BL	.	.	.
.	.	.	16cJJ	.	.	.
=12	=12	=12	=12	=12	=12	=12
8gL	dei-	4d	8BL	.	4GG	.
8f#J	.	.	8AJ	.	.	.
4e	-ne	8dL	4G	.	4AA	.
.	.	8c#J	.	.	.	.
4d;	HÃ¤nd',	4A;	4F#;	.	4D;	.
4d	du	4d	8F#L	.	8DL	.
.	.	.	8AJ	.	8CJ	.
=13	=13	=13	=13	=13	=13	=13
4g	wirst	4d	4B	.	8BBL	.
.	.	.	.	.	8AAJ	.
4a	sie	4d	4A	.	8GGL	.
.	.	.	.	.	8FF#J	.
4b	wohl	4g	4G	wohl	8EEL	wohl
.	.	.	.	.	8DJ	.
8aL	be-	4g	8eL	.	8CL	be-
8bJ	.	.	8dJ	.	8BBJ	.
=14	=14	=14	=14	=14	=14	=14
4cc	-wah-	8f#L	8cL	.	8AAL	-wah-
.	.	[8aJ	8dJ	.	8FF#	.
4b	.	8aL]	4d	be-	8GG	.
.	.	[8gJ	.	.	8BBJ	.
2a	.	4g]	4e	-wah-	8CL	.
.	.	.	.	.	8AA	.
.	.	4f#	8dL	.	8D	.
.	.	.	8cJ	.	8DDJ	.
=15	=15	=15	=15	=15	=15	=15
2.g;	-ren.	2.d;	2.B;	-ren.	2.GG;	-ren.
==|!	==|!	==|!	==|!	==|!	==|!	==|!
*-	*-	*-	*-	*-	*-	*-
!!!RWG: Key is interpreted using the Humdrum key tool.
!!!END: 1994/08/08
!!!EMD: Converted from MuseData to Humdrum Dec 19, 2000, by Andreas Kornstaedt using muse2kern.
!!!EED: Craig Stuart Sapp
!!!EEV: 2024/03/31
!!!ONB: Some non-unicode characters
